!!!OTL: Wesoly nam wn ten tho dzien
**kern
*staff1
=--
*clefC1
*k[]
0a
1g
=-
0a
1b
=-
0cc
1b
=-
0a
1g
=-
0cc
1cc
=-
1b
1a
1g
=-
0.a
=-
!!linebreak:original
0cc
1b
=-
0cc
1dd
=-
0ee
1dd
=-
0cc
1b
=-
!LO:TX:Y=-31:t=P
0cc
1cc
=-
1b
1a
1g
=-
0.f
=-
!!linebreak:original
0cc
1b
=-
0cc
1dd
=-
0ee
1dd
=-
0cc
1b
=-
0cc
1cc
=-
1b
1a
1g
=-
0.a
=-=
*-
!!title: @{OTL}, @{GTL}, ed. @{ENC}
!!!pag:
!!!GTL: Hymnbook C
!!!EFL: 
!!!YEM: Creative Commons CC/BY/NC/SA 4.0
!!!ENC: Marcin Konik
!!!END: 2015-0m-dd
!!!EED: Marcin Konik
!!!EEV: 
!!!ONB: Encoded in vim by Marcin Konik
!!!CharacterEncoding: utf-8
!!!RDF**kern: l=long note in original notation
!!!RDF**kern: i=editorial accidental
!!muse2ps: z14jc180F
!!!COM: Anonim
!!!CDT: [?]
!!!TXO: Polish
!!!ODT: 
!!!GTL: Hymnbook C
!!!ARL: Opactwo św. Wojciecha, Staniątki 
!!!voices:	1
